src/assets/images/SitePenLogo_Light.svg

<svg fill="none" height="40" viewBox="0 0 145 40" width="145" xmlns="http://www.w3.org/2000/svg"><g fill="#fff"><path d="m47.2275 26.9063c1.1588.625 2.7873 1.0937 4.6664 1.0937 4.0087 0 6.2323-1.9062 6.2323-4.8437 0-2.4688-1.472-3.9063-4.3532-4.9688-2.2549-.8437-3.2571-1.4687-3.2571-2.8437 0-1.2188 1.0022-2.25 2.85-2.25 1.5972 0 2.7873.5937 3.4449.9999l.689-2.125c-.8769-.5625-2.3175-.9687-4.0713-.9687-3.6329 0-5.7625 2.0625-5.7625 4.75 0 2 1.378 3.5938 4.4158 4.6875 2.2862.8125 3.1631 1.5625 3.1631 3 0 1.4063-1.0648 2.4688-3.3197 2.4688-1.5659 0-3.1004-.625-4.0087-1.1563z"/><path d="m64.1701 27.7188v-16.4688h-2.8499v16.4688zm-1.4093-23.18755c-1.0962 0-1.8165.8125-1.8165 1.78125s.689 1.75 1.7225 1.75c1.1588 0 1.8478-.78125 1.8478-1.75.0313-1-.689-1.78125-1.7538-1.78125z"/><path d="m69.1814 8.25v3.0937h-2.5994v2.0938h2.5994v9.0625c0 2.1875.3445 3.6562 1.1275 4.4375.689.6562 1.7851 1.0625 3.2257 1.0625 1.1901 0 2.1297-.1875 2.7247-.3438l-.1253-1.9687c-.4384.125-.9395.2187-1.7851.2187-1.6912 0-2.2862-1.1874-2.2862-3.2812v-9.1875h4.3845v-2.0938h-4.3845v-3.99995z"/><path d="m92.1061 19.8125c.0627-.3437.094-.7813.094-1.375 0-2.9375-1.378-7.5313-6.89-7.5313-4.9796 0-7.8921 3.7813-7.8921 8.6563 0 5.25 3.0378 8.4375 8.2679 8.4375 2.7247 0 4.5725-.5312 5.6059-.9375l-.5324-2.0625c-1.0648.5-2.4428.9063-4.635.9063-3.1318 0-5.7939-1.7813-5.8565-6.0625h11.8382zm-11.8069-2.0937c.2506-2.0313 1.5972-4.6876 4.7604-4.6876 3.4763 0 4.3218 2.875 4.2905 4.6876z"/><path d="m95.0501 34.5312h2.85v-8.875h.0626c1.0335 1.5 3.0693 2.3438 5.3553 2.3438 4.103 0 7.61-2.6875 7.61-8.7812 0-5.0938-2.818-8.2188-7.046-8.2188-2.85 0-4.9171 1.0312-6.1698 2.9062h-.0627l-.1566-2.625h-2.5993c.0626 1.5938.1252 3.2813.1252 5.4376v17.8124zm2.85-16.3125c0-.375.0939-.8125.2192-1.1875.5637-2.4687 2.6307-3.9374 4.7917-3.9374 3.351 0 5.167 2.9062 5.167 6.25 0 3.875-1.941 6.5312-5.292 6.5312-2.255 0-4.1656-1.4687-4.7606-3.5937-.094-.375-.1566-.8125-.1566-1.25v-2.8126z"/><path d="m127.714 19.8125c.063-.3437.094-.7813.094-1.375 0-2.9375-1.378-7.5313-6.889-7.5313-4.98 0-7.893 3.7813-7.893 8.6563 0 5.25 3.038 8.4375 8.268 8.4375 2.725 0 4.573-.5312 5.606-.9375l-.532-2.0625c-1.065.5-2.443.9063-4.635.9063-3.132 0-5.794-1.7813-5.857-6.0625h11.838zm-11.806-2.0937c.25-2.0313 1.597-4.6876 4.76-4.6876 3.476 0 4.322 2.875 4.291 4.6876z"/><path d="m129.939 27.7188h2.85v-10.0938c0-.5312.062-1.0312.219-1.4062.564-1.6875 2.161-3.125 4.196-3.125 2.944 0 3.978 2.25 3.978 4.9687v9.6563h2.85v-10c0-5.5938-3.414-6.75-5.794-6.75-2.85 0-4.823 1.3125-5.637 2.7187h-.063l-.157-2.4375h-2.536c.094 1.3438.125 2.7188.125 4.4375v12.0313z"/></g><path d="m20.0435 40c11.0697 0 20.0435-8.9543 20.0435-20s-8.9738-20-20.0435-20c-11.06972 0-20.0435 8.9543-20.0435 20s8.97378 20 20.0435 20z" fill="#0a2944"/><path d="m26.3381 16.3125-5.1674.5937-5.9818 5.9688c-1.0648 1.0625-2.3175.625-2.1609.875l5.7312-.5 6.1696-6.1563c.3758-.375.8769-.6562 1.4093-.7812z" fill="#5cdbdd" opacity=".4"/><path d="m23.6762 5.875-12.7778 12.75c-1.19005 1.1875-1.15873 3.0938 0 4.25 1.1901 1.1875 3.1005 1.1875 4.2593 0l12.7777-12.75c1.1901-1.1875 1.1588-3.0625 0-4.25-1.1588-1.15625-3.0692-1.15625-4.2592 0z" fill="#5cdbdd"/><path d="m24.8978 17.125-12.7777 12.7188c-1.1901 1.1875-1.1588 3.0937 0 4.25 1.1901 1.1875 3.1005 1.1875 4.2593 0l12.7777-12.75c1.1901-1.1875 1.1588-3.0625 0-4.25-1.1588-1.1563-3.0692-1.1563-4.2593.0312z" fill="#5cdbdd"/></svg>

<?xml version="1.0" encoding="utf-8"?>
<svg width="145" height="40" viewBox="0 0 145 40" fill="none" xmlns="http://www.w3.org/2000/svg">
<path d="M47.2275 26.9063C48.3863 27.5313 50.0148 28 51.8939 28C55.9026 28 58.1262 26.0938 58.1262 23.1563C58.1262 20.6875 56.6542 19.25 53.773 18.1875C51.5181 17.3438 50.5159 16.7188 50.5159 15.3438C50.5159 14.125 51.5181 13.0938 53.3659 13.0938C54.9631 13.0938 56.1532 13.6875 56.8108 14.0937L57.4998 11.9687C56.6229 11.4062 55.1823 11 53.4285 11C49.7956 11 47.666 13.0625 47.666 15.75C47.666 17.75 49.044 19.3438 52.0818 20.4375C54.368 21.25 55.2449 22 55.2449 23.4375C55.2449 24.8438 54.1801 25.9063 51.9252 25.9063C50.3593 25.9063 48.8248 25.2813 47.9165 24.75L47.2275 26.9063Z" fill="white"/>
<path d="M64.1701 27.7188V11.25H61.3202V27.7188H64.1701ZM62.7608 4.53125C61.6646 4.53125 60.9443 5.34375 60.9443 6.3125C60.9443 7.28125 61.6333 8.0625 62.6668 8.0625C63.8256 8.0625 64.5146 7.28125 64.5146 6.3125C64.5459 5.3125 63.8256 4.53125 62.7608 4.53125Z" fill="white"/>
<path d="M69.1814 8.25V11.3437H66.582V13.4375H69.1814V22.5C69.1814 24.6875 69.5259 26.1562 70.3089 26.9375C70.9979 27.5937 72.094 28 73.5346 28C74.7247 28 75.6643 27.8125 76.2593 27.6562L76.134 25.6875C75.6956 25.8125 75.1945 25.9062 74.3489 25.9062C72.6577 25.9062 72.0627 24.7188 72.0627 22.625V13.4375H76.4472V11.3437H72.0627V7.34375L69.1814 8.25Z" fill="white"/>
<path d="M92.1061 19.8125C92.1688 19.4688 92.2001 19.0312 92.2001 18.4375C92.2001 15.5 90.8221 10.9062 85.3101 10.9062C80.3305 10.9062 77.418 14.6875 77.418 19.5625C77.418 24.8125 80.4558 28 85.6859 28C88.4106 28 90.2584 27.4688 91.2918 27.0625L90.7594 25C89.6946 25.5 88.3166 25.9063 86.1244 25.9063C82.9926 25.9063 80.3305 24.125 80.2679 19.8438H92.1061V19.8125ZM80.2992 17.7188C80.5498 15.6875 81.8964 13.0312 85.0596 13.0312C88.5359 13.0312 89.3814 15.9062 89.3501 17.7188H80.2992Z" fill="white"/>
<path d="M95.0501 34.5312H97.9001V25.6562H97.9627C98.9962 27.1562 101.032 28 103.318 28C107.421 28 110.928 25.3125 110.928 19.2188C110.928 14.125 108.11 11 103.882 11C101.032 11 98.9649 12.0312 97.7122 13.9062H97.6495L97.4929 11.2812H94.8936C94.9562 12.875 95.0188 14.5625 95.0188 16.7188V34.5312H95.0501ZM97.9001 18.2187C97.9001 17.8437 97.994 17.4062 98.1193 17.0312C98.683 14.5625 100.75 13.0938 102.911 13.0938C106.262 13.0938 108.078 16 108.078 19.3438C108.078 23.2188 106.137 25.875 102.786 25.875C100.531 25.875 98.6204 24.4063 98.0254 22.2813C97.9314 21.9063 97.8688 21.4688 97.8688 21.0313V18.2187H97.9001Z" fill="white"/>
<path d="M127.714 19.8125C127.777 19.4688 127.808 19.0312 127.808 18.4375C127.808 15.5 126.43 10.9062 120.919 10.9062C115.939 10.9062 113.026 14.6875 113.026 19.5625C113.026 24.8125 116.064 28 121.294 28C124.019 28 125.867 27.4688 126.9 27.0625L126.368 25C125.303 25.5 123.925 25.9063 121.733 25.9063C118.601 25.9063 115.939 24.125 115.876 19.8438H127.714V19.8125ZM115.908 17.7188C116.158 15.6875 117.505 13.0312 120.668 13.0312C124.144 13.0312 124.99 15.9062 124.959 17.7188H115.908Z" fill="white"/>
<path d="M129.939 27.7188H132.789V17.625C132.789 17.0938 132.851 16.5938 133.008 16.2188C133.572 14.5313 135.169 13.0938 137.204 13.0938C140.148 13.0938 141.182 15.3438 141.182 18.0625V27.7188H144.032V17.7188C144.032 12.125 140.618 10.9688 138.238 10.9688C135.388 10.9688 133.415 12.2813 132.601 13.6875H132.538L132.381 11.25H129.845C129.939 12.5938 129.97 13.9688 129.97 15.6875V27.7188H129.939Z" fill="white"/>
<path d="M20.0435 40C31.1132 40 40.087 31.0457 40.087 20C40.087 8.9543 31.1132 0 20.0435 0C8.97378 0 0 8.9543 0 20C0 31.0457 8.97378 40 20.0435 40Z" fill="#0A2944"/>
<path opacity="0.4" d="M26.3381 16.3125L21.1707 16.9062L15.1889 22.875C14.1241 23.9375 12.8714 23.5 13.028 23.75L18.7592 23.25L24.9288 17.0937C25.3046 16.7187 25.8057 16.4375 26.3381 16.3125Z" fill="#5CDBDD"/>
<path d="M23.6762 5.875L10.8984 18.625C9.70835 19.8125 9.73967 21.7188 10.8984 22.875C12.0885 24.0625 13.9989 24.0625 15.1577 22.875L27.9354 10.125C29.1255 8.9375 29.0942 7.0625 27.9354 5.875C26.7766 4.71875 24.8662 4.71875 23.6762 5.875Z" fill="#5CDBDD"/>
<path d="M24.8978 17.125L12.1201 29.8438C10.93 31.0313 10.9613 32.9375 12.1201 34.0938C13.3102 35.2813 15.2206 35.2813 16.3794 34.0938L29.1571 21.3438C30.3472 20.1563 30.3159 18.2813 29.1571 17.0938C27.9983 15.9375 26.0879 15.9375 24.8978 17.125Z" fill="#5CDBDD"/>
</svg>
